icon-themes/sifr_svg/cmd/lc_signpdf.svg

<svg viewBox="0 0 24 24" xmlns="http://www.w3.org/2000/svg"><path d="m4 2v20h5v-2h-3v-10c2.0457422 1.632897 3.7373763 3.747114 5 5.822266v-1.822266c0-.535646.107761-1.042532.265625-1.527344-.785646-.762652-1.6025483-1.513338-2.4648438-2.25 1.6055908.082278 2.9456358.039297 4.1191408-.126953.852643-.6750096 1.914873-1.095703 3.080078-1.095703.131686 0 .261421.0093999.390625.0195312.556814-.2894335 1.088522-.6243229 1.609375-1.0195312v1.4257812c.800971.3531084 1.482938.9163168 2 1.6113278v-9.037109zm2 2h12v2c-2.666137 1.64-5.24 2.3323293-12 2zm10 6c-2.209139 0-4 1.790861-4 4v3h-2v6h12v-6h-2v-3c0-2.209139-1.790861-4-4-4zm0 2c1.104569 0 2 .895431 2 2v3h-4v-3c0-1.104569.895431-2 2-2z" fill="#555753"/></svg>

<svg xmlns="http://www.w3.org/2000/svg" viewBox="0 0 24 24">
  <path
     style="fill:#555753"
     d="M 4 2 L 4 22 L 9 22 L 9 20 L 6 20 L 6 10 C 8.0457422 11.632897 9.7373763 13.747114 11 15.822266 L 11 14 C 11 13.464354 11.107761 12.957468 11.265625 12.472656 C 10.479979 11.710004 9.6630767 10.959318 8.8007812 10.222656 C 10.406372 10.304934 11.746417 10.261953 12.919922 10.095703 C 13.772565 9.4206934 14.834795 9 16 9 C 16.131686 9 16.261421 9.0093999 16.390625 9.0195312 C 16.947439 8.7300977 17.479147 8.3952083 18 8 L 18 9.4257812 C 18.800971 9.7788896 19.482938 10.342098 20 11.037109 L 20 2 L 4 2 z M 6 4 L 18 4 L 18 6 C 15.333863 7.64 12.76 8.3323293 6 8 L 6 4 z M 16 10 C 13.790861 10 12 11.790861 12 14 L 12 17 L 10 17 L 10 23 L 22 23 L 22 17 L 20 17 L 20 14 C 20 11.790861 18.209139 10 16 10 z M 16 12 C 17.104569 12 18 12.895431 18 14 L 18 17 L 14 17 L 14 14 C 14 12.895431 14.895431 12 16 12 z "
     />
</svg>
